X: 11
T: Trip to Higgsville, U.S.A.
C: Eric Scott
N: Princeton, New Jersey
N: Recommended tune for the dance "Halfway Measures"
N: For Scott Higgs
B: "Gems - The Best of the Country Dance and Song Society", CDSS, 1993, p.45
Z: 2011 John Chambers <jc:trillian.mit.edu>
R: jig
M: 6/8
L: 1/8
K: C
"A"[|] Bc !Segno!||\
"Em7"d2d "Am7"c2B | "Dm7"A2G "G9"A2B | "C"c2C "Am"C2D | "Dm"D2E "G7"F2A |\
"Em7"B2c "Am7"d2B | "Dm7"A2G "G9"A2B | "C"c2e "Am"d2c | "Dm"B2A "G7"B2G ||
"B"[|] "C"Mc3 "E"Me3 | "F"Mc2A "Em/G"G3 | "E7"B2B "A7"e2e | "D7"d2A "G7"G2B |\
"C"cde "F"ac'a | "G"ged "E7"e2e | "Am7"Me3 "Ab7"M_e3 | "Gm"Md3 "Gb7"M_d3 ||[K:F]
"F"c2c "F/A"A2F | "Gm"G2A "C7"B3 | "A7"A2A "D7"d2d | "G7"G2G "C7"c3 |\
"D7"f3 "E"e2d | "F"c2A "G7"G2A |[" " "C"cCC "Am"ccc | "Dm"DEF "G7"G/A/ "D.S."=Bc ||
[K:C]|["Last Time" "F"c2A "G7"G2A | "C"c3 c3 |]\
y6 y6 y6 y6 y6 y6 y6 y6 y6 y6
%%begintext align
Repeat entire dance four times, once for each couple.
%%endtext

%%sep 1 1 500
%%sep 1 1 500
